X: 3046
T: Be It Known To You
R: reel
M: 4/4
K: Gmajor
B3 d c3 A|B2 dB cABA|GBdB ceag|fdef dcBA|
B3 d c3 A|B2 dB cABA|GBdB ceag|1 fdcA G2 GA:|2 fdcA G4||
|:gd (3ddd edBd|c2 cA B2 AB|GBdB ceag|fdef d3 f|
gd (3ddd edBd|c2 cA B2 AB|GBdB ceag|fdcA G4:|

